X:1
T:Brusala
T:Knut Håkanson (1887-1929)
T:Text: E A Karlfeldt
T:Brusala
T:Op 39 nr 1
%%score [ 1 2 3 4 ]
L:1/8
Q:1/4=120
M:2/2
K:Bb
V:1 treble nm="S"
V:2 treble nm="A"
V:3 treble-8 nm="T"
V:4 bass nm="B"
V:1
"^Allegro"!ff! f8 | =e4 e4 | d8- | d2 z2 z2!mf! AA | (D2 =E2) F2 G2 | A3 B A2"^cresc." dd | %6
w: Bru-|sa- la|ljus,|* du är|flo- * den med|ström och brus, du är|
 (G2 A2) B2 c2 | d3 e d2 dd |!f! g2 gg f2 e2 | d2 G2 z2 d2 | g2 gg f2 e2 | d2 G2 z2 de | %12
w: flo- * den med|ström och brus, du är|mor- gon på vi- da|slät- ter som|ja- gar med lö- sa|tyg- lar, du är|
!ff! f4 f2 f2 | e4 c2 c2 | d8- | d4 d4 | .g4 .!fermata!G4 | %17
w: mor- gon som|ja- gar på|vi-|* da|slät- ter.|
[M:4/4]"^Meno mosso (Ó = Œ)" z4 z2!mf! AA | d4 c2 B2 | A2 G2 z2!mp! AA | !>!d2 d2 z dcB | %21
w: Du är|kväl- len som|må- lar med den|sis- ta av si- na|
 A2 G2 z2!mf! G2 |"^cresc." c2 cc c2 d2 |"^Allargando" e4!<(! e2 =e2 | f2 FF f2 f2!<)! | %25
w: strå- lar den|stol- ta- ste pop- pel-|spi- ran och|krö- nen av hö- ga|
!ff! f6 z2 | z8 ||[K:F]"^Tranquillo"!mp! c4"^dolce" C2 C2 | F4 z2 FF | B4 A2 G2 | B3 A A4 | %31
w: hus.||Bru- sa- la-|natt, du är|tär- nan som|va- ken satt|
 z4 z2!p! FF | B2 BB A2 G2 | B4 A4 | z4 z2!pp! FF | d4 c2 B2 | A6 G2 | ^F8 | E6 z2 |"^rit." z8 | %40
w: och för-|so- ver sig ljuvt och|län- ge|un- der|trä- den kring|lå- ga|flyg-|lar.||
[Q:1/4=60]"^Lento" z4 z2"^dolciss."!mp! AA ||[K:C] ^f2 ff e2 d2 | ^c2 B2 z2!p! dd | f2 ff e2 d2 | %44
w: Du är|dröm- men som äls- kar|drö- ja un- der|pi- lar- nas mju- ka|
 c2 B2 z2 ^cd | e2 ee!<(! d2 ^c2!<)! |!>(! !courtesy!=c2 B2!>)! z2 A2 | %47
w: slö- ja och gå|kring på de göm- da|gån- gar där|
"^rit.""^rit.""^rit.""^rit.""^dim." A2 BA A3 ^G |!pp! A4 z4 || %49
w: da- gen är mild och|matt.|
[K:D][M:2/2][Q:1/4=240]"^Tempo I"!ff!"^con fuoco" d8 | e4 e4 | f8- | %52
w: Bru-|sa- la-|vår,|
 f z!mf! A2"^tranquillo" A2 A2 | d8 | A4 =c4 | d2 =c2 A4- | !breath!A4!<(! A2 A2!<)! | d8- | %58
w: * du är en|svan-|klang som|plöts- ligt går|* i en|snö-|
!>(! d2 _B2 =F2 G2 | A4 A4!>)! | z4 z2!<(! A2!<)! | d4 =c2 _B2 | z2 =F4!>(! G2 | A8 | %64
w: * vind ö- ver|he- den,|där|bäc- kar- na|bör- ja|ta-|
 A2!>)! z2 z2!f! BB ||[K:C]"^Furioso" e6 ^d2 | !courtesy!=d4 ^c4 | !courtesy!=c2 z2 B2 z2 | %68
w: la. Du är|vi- *|net som|bris- ter|
 z4"^più" z2!f! BB | (e2 f2) e2 ^d2 | !courtesy!=d6 ^c2 | !courtesy!=c2 z2 B2 z2 | z4 z2!ff! G2 | %73
w: ge- nom|föns- * ter- nas|vi- ta|lis- ter|och|
 (g2 f2) e2 d2 | c4 G4 | (g2 f2 e2 d2) | c4 z2!f! GG | e6 z2 | z4 z2!mp! dd | c4 z4 | %80
w: gnyr * som en|ljud- lig|gi- * * *|ga och för-|går|som en|suck|
 z4!pp! c2 z2 | B4 z4 | z8 | z8 | z8 | z8 | z8 | %87
w: för-|går.||||||
[M:4/4][Q:1/4=80]"^Uno poco lento (Ó = Œ)"!f!!<(! c6 BA!<)!"^ten.""^ten.""^ten.""^ten." | %88
w: Bru- sa- la-|
!>(! ^G4!>)! !fermata!z!p! AAA | A4 A2 A2 | !>!A4 z2 A2 | !breath!c3 B/A/!>(! c2 BA | %92
w: höst, du är ett|slock- nan- de|sken, en|röst som fly bort ge- nom|
 B2 c!>)! z z2 de | f2 e2 z2!pp! dc | c2 B2 !fermata!z2!mp! EE |"^Più Lento"!<(! A4 B2!<)! c2 | %96
w: rum- men som en|kvälls- sky med en|sva- la. Du är|hjär- tat som|
!>(! c2!>)! B2 z2!p! EE | !>!A2 A2 z!<(! AB!<)!c |!>(! c2 B2!>)! z2!<(! BB!<)! |!mf! e3 e d2 c2 | %100
w: grå- ter, som om|ald- rig det kom- me|å- ter till sitt|näs- te un- der|
!>(! !>!B2 A2!>)! z2!p!!<(! AG!<)! | (FA)dA!>(! c2"^rit.""^rit.""^rit.""^rit." B2 | A4!>)! z4 |] %103
w: teg- len, un- der|flöj- * lan- de gu- la|röst.|
V:2
!ff! [FA]8 | [=EA]4 [EA]4 | [^FA]8- | [FA]2 z2 z2!mf! A,A, | (D2 ^C2) D2 =E2 | %5
w: Bru-|sa- la|ljus,|* du är|flo- * den med|
 F3 G F2"^cresc." DD | (G2 ^F2) G2 A2 | B3 c B2 BB |!f! [GB]2 [GB][GB] [Gc]2 [Gc]2 | %9
w: ström och brus, du är|flo- * den med|ström och brus, du är|mor- gon på vi- da|
 [DG]2 D2 z2 B2 | [GB]2 [GB][GB] [Gc]2 [Gc]2 | [DG]2 D2 z2 Bc |!ff! [F_A]4 [FA]2 [FA]2 | %13
w: slät- ter som|ja- gar med lö- sa|tyg- lar, du är|mor- gon som|
 [E_A]4 G2 G2 | ^F8- | F4 ^F4 | .G4 .!fermata!D4 |[M:4/4] z4 z2!mf! FF | D4 D2 D2 | %19
w: ja- gar på|vi-|* da|slät- ter.|Du är|kväl- len som|
 D2 D2 z2!mp! FF | !>!D2 D2 z DDD | E2 D2 z2!mf! G2 |"^cresc." G2 GG G2 G2 | G4!<(! G2 B2 | %24
w: må- lar med den|sis- ta av si- na|strå- lar den|stol- ta- ste pop- pel-|spi- ran och|
 B2 AB [Bd]2 [Ac]2!<)! |!ff! [Bd]6 z2 | z8 ||[K:F]!mp! A4"^dolce" A2 A2 | F4 z2 FF | %29
w: krö- nen av hö- ga|hus.||Bru- sa- la-|natt, du är|
 [DF]4 [CF]2 [B,F]2 | [_DF]3 [CF] [CF]4 | z4 z2!p! FF | [DF]2 [DF][DF] [CF]2 [B,F]2 | %33
w: tär- nan som|va- ken satt|och för-|so- ver sig ljuvt och|
 [_DF]4 [CF]4 | z4 z2!pp! FF | B4 A2 G2 | ^F6 E2 | D8 | A,6 z2 | z8 | z4 z2!mp!"^dolciss." AA || %41
w: län- ge|un- der|trä- den kring|lå- ga|flyg-|lar.||Du är|
[K:C] d2 dd A2 B2 | A2 ^G2 z2!p! BB | d2 dd A2 B2 | A2 ^G2 z2 EE | E2 ^CC!<(! D2 E2!<)! | %46
w: dröm- men som äls- kar|drö- ja un- der|pi- lar- nas mju- ka|slö- ja och gå|kring på de göm- da|
!>(! ^F2 F2!>)! z2 F2 |"^dim." E2 EE E2 E2 |!pp! E4 z4 ||[K:D][M:2/2]!ff!"^con fuoco" (F4- FEFG) | %50
w: gån- gar där|da- gen är mild och|matt.|Bru- * * * *|
 [EA]4 [EA]4 | [FA]8- | [FA] z!mf! A2"^tranquillo" A2 A2 | A8 | D4 G4 | A2 G2 D4- | %56
w: sa- la-|vår,|* du är en|svan-|klang som|plöts- ligt går|
 !breath!D4!<(! D2 D2!<)! | D8- | D2!>(! D2 D2 D2 | D4!>)! D4 | z4 z2!<(! D2!<)! | D4 D2 D2 | %62
w: * i en|snö-|* vind ö- ver|he- den,|där|bäc- kar- na|
 z2 D4!>(! D2 | D8 | D2!>)! z2 z2!f! ^DD ||[K:C] E4 E2 E2 | E2 EE E2 EE | E2 EE E2 EE | %68
w: bör- ja|ta-|la. Du är|vi- net som|bris- ter i föns- ter- nas|lis- ter, ja vi- net som|
 E2 EE E2 EE | E2 EE E2 EE | E2 EE E2 EE | E2 EE E2 EE | E2 EE E2 E!ff!E | (e2 d2) c2 G2 | E4 G4 | %75
w: bris- ter i föns- ter- nas|lis- ter, ja vi- net som|bris- ter i föns- ter- nas|lis- ter, ja vi- net som|bris- ter i fönst- ret och|gnyr * som en|ljud- lig|
 (e2 d2 c2 G2) | E4 z2!f! GG | c6 z2 | z4 z2!mp! BB | A4 z4 | z4!pp! A2 z2 | E4 z4 | z8 | z8 | z8 | %85
w: gi- * * *|ga och för-|går|som en|suck|för-|går.||||
 z8 | z8 |[M:4/4]!f!!<(! [^D^F]6 [DF]!<)![DF] |!>(! E4!>)! !fermata!z!p! AAA | G4 ^F2 F2 | %90
w: ||Bru- sa- la-|höst, du är ett|slock- nan- de|
 !>!!courtesy!=F4 E4 | !breath!^D3 E/^F/!>(! D2 EF | ^G2 A!>)! z z2 Bc | d2 A2 z2!pp! _BA | %94
w: sken, en|röst som fly bort ge- nom|rum- men som en|kvälls- sky med en|
 ^G2 E2 !fermata!z2!mp! EE |!<(! E4 ^D2!<)! E2 |!>(! F2!>)! F2 z2!p! EE | !>!F2 E2 z!<(! E^D!<)!E | %98
w: sva- la. Du är|hjär- tat som|grå- ter, som om|ald- rig det kom- me|
!>(! F2 F2!>)! z2!<(! FF!<)! |!mf! E3 E G2 G2 |!>(! !>!G2 F2!>)! z2!p!!<(! EE!<)! | %101
w: å- ter till sitt|näs- te un- der|teg- len, un- der|
 (FE)DE!>(! ^D2 =D2 | C4!>)! z4 |] %103
w: flöj- * lan- de gu- la|röst.|
V:3
!ff! ^c8 | ^c4 c4 | d8- | d2 z2 z4 | z2!mf! AA (D2 =E2) | F2 G2 A3 c |"^cresc." B2 dd (G2 A2) | %7
w: Bru-|sa- la|ljus,||du är flo- *|den med ström och|brus, du är flo- *|
 B2 c2 d2 dd |!f! [Be]4 d2 c2 | (BA)(Bc) (d=e)^fg | [B!courtesy!_e]4 d2 c2 | (BA)(Bc) dedc | %12
w: den med brus, du är|mor- gon på|vi- * da * slät- * ter som|ja- gar med|lö- * sa * tyg- lar, du är|
!ff! [_A_d]4 [Ad]2 [Ad]2 | [_Ac]4 c2 c2 | (!courtesy!=A4 e4 | d4) c4 | .B4 .!fermata!B4 | %17
w: mor- gon som|ja- gar på|vi- *|* da|slät- ter.|
[M:4/4] z4 z2!mf! FF | B4 A2 G2 | ^F2 G2 z2!mp! =FF | !>!_G2 F2 z BA!courtesy!=G | %21
w: Du är|kväl- len som|må- lar med den|sis- ta av si- na|
 ^F2 G2 z2!mf! G2 |"^cresc." c2 cc c2 =B2 | c4!<(! c2 ^c2 | d2 !courtesy!=cd f2 [ef]2!<)! | %25
w: strå- lar den|stol- ta- ste pop- pel-|spi- ran och|krö- nen av hö- ga|
!ff! [df]6 z2 | z8 ||[K:F] z8 |!mp! c4"^dolce" C2 C2 |!>(! F8!>)! | F4 F2 F2 | F8- | F8 | %33
w: hus.|||Bru- sa- la-|natt,|Bru- sa- la-|natt,||
 F4 F2 F2 |!>(! F8!>)! | z8 | z8 |!pp! A4 A2 A2 | A8 | z8 | z8 || %41
w: Bru- sa- la-|natt,|||Bru- sa- la-|natt,|||
[K:C] z2!mp!"^dolciss." AA ^f2 ff | e2 d2 ^c2 B2 | z2!p! dd f2 ff | e2 d2 !courtesy!=c2 BB | %45
w: Du är dröm- men som|äls- kar drö- ja|un- der pi- lar- nas|mju- ka slö- ja och|
 ^ccAA!<(! A2 A2!<)! |!>(! A2 B2!>)! z2 !courtesy!=c2 |"^dim." ^c2 d=c B2 B2 |!pp! A4 z4 || %49
w: gå kring på de göm- da|gån- gar där|da- gen är mild och|matt.|
[K:D][M:2/2]!ff! (d"^con fuoco"efe d4) | d4 c4 | d8- | d z z2 z4 | z2!mf! A2"^tranquillo" A2 A2 | %54
w: Bru- * * * *|sa- la-|vår,||du är en|
 d8 | A4 =c4 | d2 =c2!<(! A4!<)! | =F4 F4 |!>(! D4 E4 | (!courtesy!^F2 E2)!>)! (F2 G2) | A4 F2 z2 | %61
w: svan-|klang som|plöts- ligt går|i en|snö- vind|ö- * ver *|he- den,|
 =F8 | D4 E4 |!>(! (!courtesy!^F2 E2) F2 G2 | A8 ||[K:C] B2!>)! z2 z2!f! BB | (e6 ^d2) | %67
w: där|bäc- kar-|na * bör- ja|ta-|la. Du är|vi- *|
 !courtesy!=d4 ^c4 | !courtesy!=c2 z2 B2 z2 | z4"^più" z2!f! BB | (e2 f2) e2 ^d2 | %71
w: net som|bris- ter|ge- nom|föns- * ter- nas|
 !courtesy!=d6 ^c2 | !courtesy!=c2 z2 B2 z2 | z4 z2!ff! G2 | (g2 f2) e2 d2 | c4 G4 | %76
w: vi- ta|lis- ter|och|gnyr * som en|ljud- lig|
!>(! (g2 f2 e2 d2)!>)! | c4 z2!mf! GG | e6 z2 | z4 z2!p! dd | c4 z4 | z8 |!ppp! c2 z2 z4 | %83
w: gi- * * *|ga och för-|går|som en|suck||för-|
!>(! !>!B8!>)! | z8 | z8 | z8 |[M:4/4]!f!!<(! A6 B!<)!c |!>(! B4!>)! !fermata!z4 | z8 | z8 | z8 | %92
w: går.||||Bru- sa- la-|höst,||||
 z8 | z8 | z4 !fermata!z2!mp! EE |!<(! A4 A2!<)! A2 |!>(! ^G2!>)! G2 z2!p! EE | %97
w: ||Du är|hjär- tat som|grå- ter, som om|
 !>!A2 A2 z!<(! AAA!<)! |!>(! ^G2 G2!>)! z2!<(! =G!<)!G |!mf! G3 G c2 c2 | %100
w: ald- rig det kom- me|å- ter till sitt|näs- te un- der|
!>(! !>!c2 c2!>)! z2!p!!<(! _B!<)!B | A2 AA!>(! A2 ^G2 | A4!>)! z4 |] %103
w: teg- len, un- der|flöj- lan- de gu- la|röst.|
V:4
!ff! A,8 | [A,,A,]4 [A,,A,]4 | [D,A,]8- | [D,A,]2 z2 z4 | z2!mf! A,,A,, (D,2 ^C,2) | %5
w: Bru-|sa- la|ljus,||du är flo- *|
 D,2 =E,2 F,3 D, |"^cresc." G,2 D,D, (G,2 ^F,2) | G,2 A,2 B,2 B,B, |!f! E,4 C,2 C,2 | %9
w: den med ström och|brus, du är flo- *|den med brus, du är|mor- gon på|
 ([G,,G,]D,)(G,A,) (B,C)A,B, | E,4 C,2 C,2 | ([G,,G,]D,)(G,A,) B,G,F,E, |!ff! _D,4 D,2 D,2 | %13
w: vi- * da * slät- * ter som|ja- gar med|lö- * sa * tyg- lar, du är|mor- gon som|
 _A,,4 E,2 E,2 | D,2 D,D, D,2 D,D, | D,2 D,D, D,2 D,2 | .[G,,D,]4 .!fermata!G,4 | %17
w: ja- gar på|ja- gar med lös- släpp- ta|tyg- lar, på vi- da|slät- ter.|
[M:4/4] z4 z2!mf! F,F, | B,,4 B,,2 B,,2 | B,,2 B,,2 z2!mp! F,F, | !>!B,,2 B,,2 z B,,B,,B,, | %21
w: Du är|kväl- len som|må- lar med den|sis- ta av si- na|
 B,,2 B,,2 z2!mf! G,2 |"^cresc." E,2 E,E, G,2 G,2 | (C,2 E,2)!<(! G,2 _G,2 | F,2 F,F, F,2 F,2!<)! | %25
w: strå- lar den|stol- ta- ste pop- pel-|spi- * ran och|krö- nen av hö- ga|
!ff! B,6 z2 | z8 ||[K:F] z8 |!mp! A,4"^dolce" A,2 A,2 |!>(! F,8!>)! | F,,4 F,,2 F,,2 | F,,8- | %32
w: hus.|||Bru- sa- la-|natt,|Bru- sa- la-|natt,|
 F,,8 | F,,4 F,,2 F,,2 |!>(! F,,8!>)! | z8 | z8 |!pp! A,,4 A,,2 A,,2 | A,,8 | %39
w: |Bru- sa- la-|natt,|||Bru- sa- la-|natt,|
 A,,4"^dim." A,,2 A,,2 |!ppp! A,,6 z2 ||[K:C] z2!mp!"^dolciss." A,A, D2 DD | A,2 B,2 A,2 ^G,2 | %43
w: Bru- sa- la-|natt,|Du är dröm- men som|äls- kar drö- ja|
 z2!p! B,B, D2 DD | A,2 B,2 A,2 ^G,G, | A,A,!courtesy!=G,G,!<(! !courtesy!=F,2 E,2!<)! | %46
w: un- der pi- lar- nas|mju- ka slö- ja och|gå kring på de göm- da|
!>(! ^D,2!>)! D,2 z2 D,2 | E,"^dim."E,E,E, E,E,E,E, |!pp! [A,,E,]4 z4 || %49
w: gån- gar där|da- gen är så mild så mild och|matt.|
[K:D][M:2/2]!ff!"^con fuoco" B,8 | A,4 [A,,A,]4 | [D,A,]8- | [D,A,] z z2 z4 | %53
w: Bru-|sa- la-|vår,||
 z2!mf! A,2"^tranquillo" A,2 A,2 | A,8 | D,4 G,4 | A,2 G,2!<(! D,4!<)! | _B,,4 B,,4 | %58
w: du är en|svan-|klang som|plöts- ligt går|i en|
 _B,,4!>(! B,,4 | (D,2 A,,2)!>)! (D,2 E,2) | F,4 D,2 z2 | _B,,8 | _B,,4!>(! B,,4 | %63
w: snö- vind|ö- * ver *|he- den,|där|bäc- kar-|
 (D,2 A,,2) D,2 E,2 | (F,4 =F,4)!>)! ||[K:C] E,2!f! E,E, E,2 E,E, | E,2 E,E, E,2 E,E, | %67
w: na * bör- ja|ta- *|la. Du är vi- net som|bris- ter i föns- ter- nas|
 E,2 E,E, E,2 E,E, | E,2 E,E, E,2 E,E, | E,2 E,E, E,2 E,E, | E,2 E,E, E,2 E,E, | %71
w: lis- ter, ja vi- net som|bris- ter i föns- ter- nas|lis- ter, ja vi- net som|bris- ter i föns- ter- nas|
 E,2 E,E, E,2 E,E, | E,2 E,E, E,2 E,E, | E,2 E,2 z2!ff! E,2 | (E2 D2) C2 G,2 | E,4 G,4 | %76
w: lis- ter, ja vi- net som|bris- ter i föns- ter- nas|lis- ter, och|gnyr * som en|ljud- lig|
!>(! (E2 D2 C2 G,2)!>)! | E,4 z2!mf! G,G, | C6 z2 | z4 z2!p! B,B, | A,4 z4 | z8 |!ppp! A,2 z2 z4 | %83
w: gi- * * *|ga och för-|går|som en|suck||för-|
!>(! !>!E,8!>)! | z8 | z8 | z8 |[M:4/4]!f!!<(! B,,6 B,,!<)!B,, |!>(! E,4!>)! !fermata!z4 | z8 | %90
w: går.||||Bru- sa- la-|höst,||
 z8 | z8 | z8 | z8 | z4 !fermata!z2!mp! E,E, |!<(! C,4 F,2!<)! E,2 |!>(! D,2!>)! D,2 z2!p! E,E, | %97
w: ||||Du är|hjär- tat som|grå- ter, som om|
 !>!C,2 C,2 z!<(! C,F,!<)!E, |!>(! D,2 D,2!>)! z2!<(! D,D,!<)! |!mf! C,3 C, E,2 E,2 | %100
w: ald- rig det kom- me|å- ter till sitt|näs- te un- der|
!>(! !>!F,2 F,2!>)! z2!p!!<(! ^C,!<)!C, | (D,E,)F,C,!>(! B,,2 E,2 | [A,,E,]4!>)! z4 |] %103
w: teg- len, un- der|flöj- * lan- de gu- la|röst.|

